assets/icons/qvision/all_inclusive.svg

<svg xmlns="http://www.w3.org/2000/svg" height="24" viewBox="0 0 24 24" width="24"><path d="M0 0h24v24H0V0z" fill="none"/><path d="M18.6 6.62c-1.44 0-2.8.56-3.77 1.53L12 10.66 10.48 12h.01L7.8 14.39c-.64.64-1.49.99-2.4.99-1.87 0-3.39-1.51-3.39-3.38S3.53 8.62 5.4 8.62c.91 0 1.76.35 2.44 1.03l1.13 1 1.51-1.34L9.22 8.2C8.2 7.18 6.84 6.62 5.4 6.62 2.42 6.62 0 9.04 0 12s2.42 5.38 5.4 5.38c1.44 0 2.8-.56 3.77-1.53l2.83-2.5.01.01L13.52 12h-.01l2.69-2.39c.64-.64 1.49-.99 2.4-.99 1.87 0 3.39 1.51 3.39 3.38s-1.52 3.38-3.39 3.38c-.9 0-1.76-.35-2.44-1.03l-1.14-1.01-1.51 1.34 1.27 1.12c1.02 1.01 2.37 1.57 3.82 1.57 2.98 0 5.4-2.41 5.4-5.38s-2.42-5.37-5.4-5.37z"/></svg>

<svg width="24" height="24" viewBox="0 0 24 24" fill="none" xmlns="http://www.w3.org/2000/svg">
<g clip-path="url(#clip0_147_6088)">
<path d="M18.6 6.62C17.16 6.62 15.8 7.17999 14.83 8.14999L12 10.66L10.48 12H10.49L7.8 14.39C7.16 15.03 6.31 15.38 5.4 15.38C3.53 15.38 2.01 13.87 2.01 12C2.01 10.13 3.53 8.62 5.4 8.62C6.31 8.62 7.16 8.96999 7.84 9.64999L8.97 10.65L10.48 9.31L9.22 8.2C8.2 7.18 6.84 6.62 5.4 6.62C2.42 6.62 0 9.04 0 12C0 14.96 2.42 17.38 5.4 17.38C6.84 17.38 8.2 16.82 9.17 15.85L12 13.35L12.01 13.36L13.52 12H13.51L16.2 9.60999C16.84 8.97 17.69 8.62 18.6 8.62C20.47 8.62 21.99 10.13 21.99 12C21.99 13.87 20.47 15.38 18.6 15.38C17.7 15.38 16.84 15.03 16.16 14.35L15.02 13.34L13.51 14.68L14.78 15.8C15.8 16.81 17.15 17.37 18.6 17.37C21.58 17.37 24 14.96 24 11.99C24 9.01999 21.58 6.62 18.6 6.62Z" fill="#323232"/>
</g>
<defs>
<clipPath id="clip0_147_6088">
<rect width="24" height="24" fill="white"/>
</clipPath>
</defs>
</svg>
